X:0100
M:6/8
L:1/8
Q:3/8=120
K:G
c2c cde|d2c  B3|dec B2A|G2G G3:|
d2d dBG|e2e  e3|c2c cAF|d2d d3 |
c2c cde|d2c B2c|dec B2A|G2G G3:|

